X: 2837
T: Barbara Needham's
R: jig
M: 6/8
K: Amixolydian
Add cAA|GEG A2G|Add cAA|GEA D3|
Add cAA|GEG A2F|GAB =cBA|GEA D3||
E/F/|G2E A2E|A=cB A2 E/F/|G2E A3|GEA D2 E/F/|
G2E A2E|A=cB A2F|GAB =cBA|GEA D3||

